assets/img/careers/noun_Planet_2480118.svg

<svg width="71" height="70" viewBox="0 0 71 70" fill="none" xmlns="http://www.w3.org/2000/svg">
<path d="M35.004 61.25C19.7256 61.25 7.29565 48.8202 7.29565 33.5417C7.29565 18.2633 19.7256 5.83334 35.004 5.83334C50.2825 5.83334 62.7123 18.2633 62.7123 33.5417C62.7123 48.8202 50.2825 61.25 35.004 61.25ZM35.004 8.75001C21.3339 8.75001 10.2123 19.8716 10.2123 33.5417C10.2123 47.2118 21.3339 58.3333 35.004 58.3333C48.6741 58.3333 59.7957 47.2118 59.7957 33.5417C59.7957 19.8716 48.6741 8.75001 35.004 8.75001Z" fill="#5e2ced"/>
<path d="M15.4569 45.2872C14.4027 45.2872 13.3843 45.2617 12.4061 45.2102C5.02679 44.8213 0.769474 42.9628 0.0942656 39.8356C-0.551776 36.8441 2.12529 33.6744 8.05122 30.4147C8.75662 30.0265 9.64358 30.2839 10.0319 30.9896C10.4201 31.6953 10.1627 32.5821 9.45706 32.9703C4.27064 35.8234 2.70774 38.1201 2.94531 39.22C3.20431 40.4198 5.87772 41.9455 12.5598 42.2977C18.9899 42.636 27.2869 41.7964 35.9219 39.9318C44.5567 38.0672 52.4608 35.4089 58.1785 32.4468C64.1198 29.3688 65.9253 26.8756 65.6663 25.676C65.4493 24.6706 63.36 23.3049 58.1858 22.7636C57.3847 22.6797 56.8033 21.9625 56.8872 21.1614C56.9709 20.3604 57.6888 19.7795 58.4891 19.8628C64.5352 20.4953 67.9092 22.244 68.5172 25.0604C69.1926 28.1876 66.0815 31.6372 59.5203 35.0365C53.5798 38.1141 45.4177 40.8651 36.5374 42.7827C28.9575 44.4194 21.6031 45.2872 15.4569 45.2872Z" fill="#5e2ced"/>
<path d="M62.3682 70C61.8351 70 61.3444 69.7092 61.0888 69.2415L59.1095 65.6228L55.4908 63.6437C55.0231 63.3879 54.7323 62.8973 54.7323 62.3643C54.7323 61.8313 55.0231 61.3406 55.4908 61.0849L59.1095 59.1057L61.0888 55.487C61.3446 55.0193 61.8351 54.7285 62.3682 54.7285C62.9012 54.7285 63.3919 55.0193 63.6476 55.487L65.6267 59.1057L69.2454 61.0849C69.7131 61.3407 70.0039 61.8313 70.0039 62.3643C70.0039 62.8973 69.7131 63.3881 69.2454 63.6437L65.6267 65.6228L63.6476 69.2415C63.3918 69.7092 62.9012 70 62.3682 70ZM59.2295 62.3642L60.8837 63.2688C61.1284 63.4026 61.3295 63.6038 61.4634 63.8485L62.3682 65.5027L63.2728 63.8485C63.4066 63.6038 63.6077 63.4026 63.8525 63.2688L65.5066 62.3642L63.8525 61.4594C63.6077 61.3255 63.4066 61.1244 63.2728 60.8797L62.3682 59.2255L61.4634 60.8797C61.3295 61.1244 61.1284 61.3255 60.8837 61.4594L59.2295 62.3642Z" fill="#5e2ced"/>
<path d="M7.63983 15.2718C7.10681 15.2718 6.61608 14.9809 6.36044 14.5132L4.38133 10.8946L0.762623 8.91538C0.294935 8.65958 0.0039978 8.169 0.0039978 7.63598C0.0039978 7.10296 0.294935 6.61223 0.762623 6.35658L4.38133 4.37733L6.36044 0.758625C6.61623 0.290937 7.10681 0 7.63983 0C8.17285 0 8.66358 0.290937 8.91923 0.758625L10.8983 4.37733L14.517 6.35658C14.9847 6.61238 15.2757 7.10296 15.2757 7.63598C15.2757 8.169 14.9847 8.65973 14.517 8.91538L10.8985 10.8946L8.91937 14.5133C8.66358 14.981 8.173 15.2718 7.63983 15.2718ZM4.5015 7.63598L6.15554 8.54058C6.40025 8.67431 6.6015 8.87556 6.73523 9.12027L7.63983 10.7743L8.54444 9.12027C8.67817 8.87556 8.87942 8.67431 9.12412 8.54058L10.7782 7.63598L9.12412 6.73123C8.87942 6.5975 8.67817 6.39625 8.54444 6.15154L7.63983 4.4975L6.73523 6.15154C6.6015 6.39625 6.40025 6.5975 6.15554 6.73123L4.5015 7.63598Z" fill="#5e2ced"/>
<path d="M34.2748 26.25C31.4604 26.25 29.1707 23.9603 29.1707 21.1458C29.1707 18.3314 31.4604 16.0417 34.2748 16.0417C37.0893 16.0417 39.379 18.3314 39.379 21.1458C39.379 23.9603 37.0893 26.25 34.2748 26.25ZM34.2748 18.9583C33.0686 18.9583 32.0873 19.9396 32.0873 21.1458C32.0873 22.352 33.0686 23.3333 34.2748 23.3333C35.481 23.3333 36.4623 22.352 36.4623 21.1458C36.4623 19.9396 35.481 18.9583 34.2748 18.9583Z" fill="#5e2ced"/>
<path d="M43.0248 52.5C41.0145 52.5 39.379 50.8645 39.379 48.8541C39.379 46.8438 41.0145 45.2083 43.0248 45.2083C45.0351 45.2083 46.6707 46.8438 46.6707 48.8541C46.6707 50.8645 45.0351 52.5 43.0248 52.5ZM43.0248 48.125C42.6228 48.125 42.2957 48.4521 42.2957 48.8541C42.2957 49.2562 42.6228 49.5833 43.0248 49.5833C43.4269 49.5833 43.754 49.2562 43.754 48.8541C43.754 48.4521 43.4269 48.125 43.0248 48.125Z" fill="#5e2ced"/>
<path d="M22.6082 36.4583C20.5978 36.4583 18.9623 34.8228 18.9623 32.8125C18.9623 30.8022 20.5978 29.1667 22.6082 29.1667C24.6185 29.1667 26.254 30.8022 26.254 32.8125C26.254 34.8228 24.6185 36.4583 22.6082 36.4583ZM22.6082 32.0833C22.2061 32.0833 21.879 32.4104 21.879 32.8125C21.879 33.2146 22.2061 33.5417 22.6082 33.5417C23.0102 33.5417 23.3373 33.2146 23.3373 32.8125C23.3373 32.4104 23.0102 32.0833 22.6082 32.0833Z" fill="#5e2ced"/>
<path d="M10.2123 67.0833C9.40689 67.0833 8.754 66.4303 8.754 65.625V61.25C8.754 60.4447 9.40689 59.7917 10.2123 59.7917C11.0178 59.7917 11.6707 60.4447 11.6707 61.25V65.625C11.6707 66.4303 11.0178 67.0833 10.2123 67.0833Z" fill="#5e2ced"/>
<path d="M12.3998 64.8958H8.02483C7.21939 64.8958 6.5665 64.2428 6.5665 63.4375C6.5665 62.6322 7.21939 61.9792 8.02483 61.9792H12.3998C13.2053 61.9792 13.8582 62.6322 13.8582 63.4375C13.8582 64.2428 13.2053 64.8958 12.3998 64.8958Z" fill="#5e2ced"/>
<path d="M60.5248 14.5833C59.7195 14.5833 59.0665 13.9304 59.0665 13.125V8.74999C59.0665 7.94455 59.7195 7.29166 60.5248 7.29166C61.3301 7.29166 61.9832 7.94455 61.9832 8.74999V13.125C61.9832 13.9304 61.3301 14.5833 60.5248 14.5833Z" fill="#5e2ced"/>
<path d="M62.7123 12.3958H58.3373C57.532 12.3958 56.879 11.7429 56.879 10.9375C56.879 10.1321 57.532 9.47916 58.3373 9.47916H62.7123C63.5176 9.47916 64.1707 10.1321 64.1707 10.9375C64.1707 11.7429 63.5176 12.3958 62.7123 12.3958Z" fill="#5e2ced"/>
</svg>

<?xml version="1.0" encoding="utf-8"?>
<!-- Generator: Adobe Illustrator 24.0.1, SVG Export Plug-In . SVG Version: 6.00 Build 0)  -->
<svg version="1.1" id="Слой_1" xmlns="http://www.w3.org/2000/svg" xmlns:xlink="http://www.w3.org/1999/xlink" x="0px" y="0px"
	 viewBox="0 0 71 70" style="enable-background:new 0 0 71 70;" xml:space="preserve">
<style type="text/css">
	.st0{fill:#FFFFFF;}
</style>
<path class="st0" d="M35,61.3c-15.3,0-27.7-12.4-27.7-27.7C7.3,18.3,19.7,5.8,35,5.8c15.3,0,27.7,12.4,27.7,27.7
	C62.7,48.8,50.3,61.3,35,61.3z M35,8.8c-13.7,0-24.8,11.1-24.8,24.8S21.3,58.3,35,58.3s24.8-11.1,24.8-24.8S48.7,8.8,35,8.8z"/>
<path class="st0" d="M15.5,45.3c-1.1,0-2.1,0-3.1-0.1C5,44.8,0.8,43,0.1,39.8c-0.6-3,2-6.2,8-9.4c0.7-0.4,1.6-0.1,2,0.6
	c0.4,0.7,0.1,1.6-0.6,2c-5.2,2.9-6.7,5.1-6.5,6.2c0.3,1.2,2.9,2.7,9.6,3.1c6.4,0.3,14.7-0.5,23.4-2.4c8.6-1.9,16.5-4.5,22.3-7.5
	c5.9-3.1,7.7-5.6,7.5-6.8c-0.2-1-2.3-2.4-7.5-2.9c-0.8-0.1-1.4-0.8-1.3-1.6c0.1-0.8,0.8-1.4,1.6-1.3c6,0.6,9.4,2.4,10,5.2
	c0.7,3.1-2.4,6.6-9,10c-5.9,3.1-14.1,5.8-23,7.7C29,44.4,21.6,45.3,15.5,45.3z"/>
<path class="st0" d="M62.4,70c-0.5,0-1-0.3-1.3-0.8l-2-3.6l-3.6-2c-0.5-0.3-0.8-0.7-0.8-1.3s0.3-1,0.8-1.3l3.6-2l2-3.6
	c0.3-0.5,0.7-0.8,1.3-0.8c0.5,0,1,0.3,1.3,0.8l2,3.6l3.6,2c0.5,0.3,0.8,0.7,0.8,1.3s-0.3,1-0.8,1.3l-3.6,2l-2,3.6
	C63.4,69.7,62.9,70,62.4,70z M59.2,62.4l1.7,0.9c0.2,0.1,0.4,0.3,0.6,0.6l0.9,1.7l0.9-1.7c0.1-0.2,0.3-0.4,0.6-0.6l1.7-0.9l-1.7-0.9
	c-0.2-0.1-0.4-0.3-0.6-0.6l-0.9-1.7l-0.9,1.7c-0.1,0.2-0.3,0.4-0.6,0.6L59.2,62.4z"/>
<path class="st0" d="M7.6,15.3c-0.5,0-1-0.3-1.3-0.8l-2-3.6l-3.6-2C0.3,8.7,0,8.2,0,7.6s0.3-1,0.8-1.3l3.6-2l2-3.6
	C6.6,0.3,7.1,0,7.6,0s1,0.3,1.3,0.8l2,3.6l3.6,2c0.5,0.3,0.8,0.7,0.8,1.3s-0.3,1-0.8,1.3l-3.6,2l-2,3.6C8.7,15,8.2,15.3,7.6,15.3z
	 M4.5,7.6l1.7,0.9c0.2,0.1,0.4,0.3,0.6,0.6l0.9,1.7l0.9-1.7c0.1-0.2,0.3-0.4,0.6-0.6l1.7-0.9L9.1,6.7C8.9,6.6,8.7,6.4,8.5,6.2
	L7.6,4.5L6.7,6.2C6.6,6.4,6.4,6.6,6.2,6.7L4.5,7.6z"/>
<path class="st0" d="M34.3,26.3c-2.8,0-5.1-2.3-5.1-5.1c0-2.8,2.3-5.1,5.1-5.1c2.8,0,5.1,2.3,5.1,5.1C39.4,24,37.1,26.3,34.3,26.3z
	 M34.3,19c-1.2,0-2.2,1-2.2,2.2s1,2.2,2.2,2.2s2.2-1,2.2-2.2S35.5,19,34.3,19z"/>
<path class="st0" d="M43,52.5c-2,0-3.6-1.6-3.6-3.6c0-2,1.6-3.6,3.6-3.6s3.6,1.6,3.6,3.6C46.7,50.9,45,52.5,43,52.5z M43,48.1
	c-0.4,0-0.7,0.3-0.7,0.7c0,0.4,0.3,0.7,0.7,0.7c0.4,0,0.7-0.3,0.7-0.7C43.8,48.5,43.4,48.1,43,48.1z"/>
<path class="st0" d="M22.6,36.5c-2,0-3.6-1.6-3.6-3.6s1.6-3.6,3.6-3.6c2,0,3.6,1.6,3.6,3.6S24.6,36.5,22.6,36.5z M22.6,32.1
	c-0.4,0-0.7,0.3-0.7,0.7s0.3,0.7,0.7,0.7c0.4,0,0.7-0.3,0.7-0.7S23,32.1,22.6,32.1z"/>
<path class="st0" d="M10.2,67.1c-0.8,0-1.5-0.7-1.5-1.5v-4.4c0-0.8,0.7-1.5,1.5-1.5c0.8,0,1.5,0.7,1.5,1.5v4.4
	C11.7,66.4,11,67.1,10.2,67.1z"/>
<path class="st0" d="M12.4,64.9H8c-0.8,0-1.5-0.7-1.5-1.5C6.6,62.6,7.2,62,8,62h4.4c0.8,0,1.5,0.7,1.5,1.5
	C13.9,64.2,13.2,64.9,12.4,64.9z"/>
<path class="st0" d="M60.5,14.6c-0.8,0-1.5-0.7-1.5-1.5V8.8c0-0.8,0.7-1.5,1.5-1.5c0.8,0,1.5,0.7,1.5,1.5v4.4
	C62,13.9,61.3,14.6,60.5,14.6z"/>
<path class="st0" d="M62.7,12.4h-4.4c-0.8,0-1.5-0.7-1.5-1.5s0.7-1.5,1.5-1.5h4.4c0.8,0,1.5,0.7,1.5,1.5S63.5,12.4,62.7,12.4z"/>
</svg>
